X: 10562
Q: "Slow and plaintively."
M: 3/4
L: 1/16
K: F
(d2c2) (B2A2) (G2F2) | {A}G8 (F3G) |\
c3d ({d}c2BA) (G3F/G/) | F8 :|\
|: A3B |\
c6 d2 f2c2 | d4 f4 (g3a/b/) |\
a6 g2 (bagf) | d8 (c3d/e/) |
f4 F4 (F3G/A/) | G4 A4 c3f |\
(e2d2) (c2B2) (A3B) | {A}G8 F3G |\
(c3d) (cA3) (G2F2) | D8 F3G |\
(c3d) (cA3) G3F/G/ | F8 :|


